Papirus/64x64/mimetypes/x-office-presentation.svg

<svg xmlns="http://www.w3.org/2000/svg" width="64" height="64" version="1.1">
 <path style="opacity:0.2" d="M 12.75,5 C 11.2265,5 10,6.2488 10,7.8 v 50.4 c 0,1.55008 1.2265,2.8 2.75,2.8 h 38.5 C 52.7724,61 54,59.75008 54,58.2 V 23 L 40,19 36,5 Z"/>
 <path style="fill:#ff5722" d="M 12.75,4 C 11.2265,4 10,5.2488 10,6.8 v 50.4 c 0,1.55008 1.2265,2.8 2.75,2.8 h 38.5 C 52.7724,60 54,58.75008 54,57.2 V 22 L 40,18 36,4 Z"/>
 <path style="opacity:0.2" d="M 54,23 36,5 V 20.1875 C 36,21.74675 37.2555,23 38.8125,23 Z"/>
 <path style="fill:#ff8660" d="M 54,22 36,4 V 19.1875 C 36,20.74675 37.2555,22 38.8125,22 Z"/>
 <path style="opacity:0.2;fill:#ffffff" d="M 12.75 4 C 11.2265 4 10 5.2495812 10 6.8007812 L 10 7.8007812 C 10 6.2495813 11.2265 5 12.75 5 L 36 5 L 36 4 L 12.75 4 z"/>
 <path style="opacity:0.2" d="m 24,34 c -3.31365,0 -6,2.68635 -6,6 0,3.31365 2.68635,6 6,6 3.31365,0 6,-2.68635 6,-6 h -6 z m 9,0 v 3 h 13 v -3 z m 0,7 v 3 h 13 v -3 z m -15,7 v 3 h 22 v -3 z"/>
 <path style="fill:#ffffff" d="M 24 33 C 20.68635 33 18 35.68635 18 39 C 18 42.31365 20.68635 45 24 45 C 27.31365 45 30 42.31365 30 39 L 24 39 L 24 33 z M 33 33 L 33 36 L 46 36 L 46 33 L 33 33 z M 33 40 L 33 43 L 46 43 L 46 40 L 33 40 z M 18 47 L 18 50 L 40 50 L 40 47 L 18 47 z"/>
</svg>

<?xml version="1.0" encoding="UTF-8" standalone="no"?>
<svg
   t="1734904167397"
   class="icon"
   viewBox="0 0 1024 1024"
   version="1.1"
   p-id="51298"
   width="64"
   height="64"
   id="svg3"
   sodipodi:docname="x-office-presentation.svg"
   xml:space="preserve"
   inkscape:version="1.4 (e7c3feb100, 2024-10-09)"
   xmlns:inkscape="http://www.inkscape.org/namespaces/inkscape"
   xmlns:sodipodi="http://sodipodi.sourceforge.net/DTD/sodipodi-0.dtd"
   xmlns="http://www.w3.org/2000/svg"
   xmlns:svg="http://www.w3.org/2000/svg"><defs
     id="defs3" /><sodipodi:namedview
     id="namedview3"
     pagecolor="#505050"
     bordercolor="#eeeeee"
     borderopacity="1"
     inkscape:showpageshadow="0"
     inkscape:pageopacity="0"
     inkscape:pagecheckerboard="0"
     inkscape:deskcolor="#505050"
     inkscape:zoom="10.6875"
     inkscape:cx="32"
     inkscape:cy="36.210526"
     inkscape:window-width="1920"
     inkscape:window-height="939"
     inkscape:window-x="0"
     inkscape:window-y="34"
     inkscape:window-maximized="1"
     inkscape:current-layer="svg3"
     showguides="true"><sodipodi:guide
       position="285.24726,838.84188"
       orientation="1,0"
       id="guide5"
       inkscape:locked="false" /><sodipodi:guide
       position="737.95806,893.71738"
       orientation="1,0"
       id="guide6"
       inkscape:locked="false" /></sodipodi:namedview><path
     d="M145.28 0C100.48 0 64 36.48 64 81.28v860.8c0 44.8 36.48 81.92 81.28 81.92h732.8c44.8 0 81.92-37.12 81.92-81.92V324.48L657.28 0h-512z"
     fill="#0071E9"
     p-id="51299"
     id="path1"
     style="fill:#ff5722;fill-opacity:1" /><path
     d="M657.28 0v233.6c0 25.6 17.92 92.8 97.92 92.8H960L657.28 0z"
     fill="#5AAAFF"
     p-id="51300"
     id="path2"
     style="fill:#ff8660;fill-opacity:1" /><g
     id="g6"
     transform="matrix(17.040176,0,0,18.311275,-34.78271,-71.233405)"><path
       style="opacity:0.2"
       d="m 24,34 c -3.31365,0 -6,2.68635 -6,6 0,3.31365 2.68635,6 6,6 3.31365,0 6,-2.68635 6,-6 h -6 z m 9,0 v 3 h 13 v -3 z m 0,7 v 3 h 13 v -3 z m -15,7 v 3 h 22 v -3 z"
       id="path6-6" /><path
       style="fill:#ffffff"
       d="m 24,33 c -3.31365,0 -6,2.68635 -6,6 0,3.31365 2.68635,6 6,6 3.31365,0 6,-2.68635 6,-6 h -6 z m 9,0 v 3 h 13 v -3 z m 0,7 v 3 h 13 v -3 z m -15,7 v 3 h 22 v -3 z"
       id="path7-2" /></g></svg>
